img/icon/Icon_4.svg

<svg width="81" height="79" viewBox="0 0 81 79" fill="none" xmlns="http://www.w3.org/2000/svg">
<g id="Layer 2">
<g id="Layer 1">
<path id="natural life" d="M79.3131 38.2953H72.8953C71.4732 32.4225 68.4308 27.0536 64.1058 22.7844L41.3584 0.335889C41.126 0.120126 40.819 0 40.5 0C40.181 0 39.874 0.120126 39.6416 0.335889L22.158 17.5873C21.804 17.5873 21.4501 17.5349 21.0961 17.5349H1.68684C1.52756 17.5344 1.36975 17.565 1.22246 17.6249C1.07517 17.6847 0.94129 17.7727 0.828496 17.8837C0.715702 17.9948 0.62621 18.1267 0.565148 18.2719C0.504087 18.4172 0.472656 18.5729 0.472656 18.7302C0.475012 21.9539 1.25405 25.1308 2.74543 27.9986C4.23681 30.8663 6.39776 33.3427 9.04982 35.2232C-4.1292 77.8379 57.4649 97.8469 72.4033 55.648C74.9274 53.7531 76.9739 51.308 78.3831 48.5035C79.7924 45.6989 80.5262 42.6108 80.5273 39.4801C80.5236 39.1646 80.394 38.8632 80.1667 38.6414C79.9394 38.4196 79.6327 38.2953 79.3131 38.2953ZM40.4982 2.86279L62.3925 24.476C66.2545 28.2978 69.0128 33.0686 70.382 38.2953H59.9075C56.1684 38.298 52.5004 39.3039 49.2956 41.2055C46.0908 43.1071 43.4696 45.8329 41.7124 49.0914V37.9073C41.7092 33.2149 40.0675 28.667 37.0638 25.0304C34.0602 21.3938 29.8785 18.891 25.2236 17.9438L40.4982 2.86279ZM2.95058 19.929H21.0925C24.7042 19.9356 28.2323 21.0024 31.2283 22.9939C34.2243 24.9854 36.5527 27.8116 37.9176 31.113C32.8733 26.5485 21.7616 27.0064 14.6322 27.1147C14.322 27.1313 14.03 27.2646 13.8163 27.4873C13.6027 27.71 13.4836 28.005 13.4836 28.3118C13.4836 28.6185 13.6027 28.9136 13.8163 29.1362C14.03 29.3589 14.322 29.4922 14.6322 29.5088H24.328C31.7122 29.5088 38.0345 32.6963 39.107 36.6946H21.0925C16.4807 36.6865 12.0437 34.9516 8.67668 31.84C5.30968 28.7285 3.26335 24.4718 2.95058 19.929ZM62.4208 67.7024C38.9619 90.2243 1.26913 66.916 11.1738 36.5722C14.2092 38.2245 17.6193 39.0902 21.0854 39.0886H39.2805V71.428C39.2716 71.5907 39.2964 71.7534 39.3533 71.9063C39.4102 72.0592 39.498 72.199 39.6115 72.3172C39.7249 72.4355 39.8616 72.5296 40.0132 72.594C40.1647 72.6583 40.3279 72.6915 40.4929 72.6915C40.6579 72.6915 40.8211 72.6583 40.9727 72.594C41.1242 72.5296 41.2609 72.4355 41.3743 72.3172C41.4878 72.199 41.5757 72.0592 41.6326 71.9063C41.6895 71.7534 41.7142 71.5907 41.7053 71.428V59.8491H59.9004C63.0974 59.848 66.2496 59.107 69.1041 57.6856C67.5687 61.4346 65.2864 64.8408 62.3925 67.7024H62.4208ZM59.9428 57.455H41.8894C42.9514 53.4567 49.2842 50.2692 56.6684 50.2692H66.3713C66.6815 50.2527 66.9735 50.1193 67.1872 49.8966C67.4008 49.674 67.5199 49.3789 67.5199 49.0722C67.5199 48.7654 67.4008 48.4704 67.1872 48.2477C66.9735 48.025 66.6815 47.8917 66.3713 47.8751C59.2703 47.7563 48.0665 47.3194 43.0717 51.8699C44.4365 48.5676 46.7654 45.7409 49.7621 43.7493C52.7589 41.7577 56.288 40.6913 59.9004 40.6859H78.0529C77.7402 45.2297 75.6935 49.4872 72.3258 52.5994C68.9581 55.7116 64.5202 57.4469 59.9075 57.455H59.9428ZM33.2025 69.338C27.8618 67.7069 23.2428 64.3289 20.1061 59.7601C16.9694 55.1912 15.502 49.704 15.9455 44.2019C15.9858 43.8974 16.1429 43.6198 16.3844 43.4264C16.6259 43.2329 16.9334 43.1383 17.2434 43.162C17.5535 43.1858 17.8425 43.3261 18.0508 43.554C18.2592 43.782 18.371 44.0802 18.3633 44.3871C17.9631 49.3504 19.288 54.3002 22.1194 58.4204C24.9508 62.5406 29.1197 65.5852 33.9388 67.0523C34.0913 67.1023 34.2323 67.1815 34.3538 67.2853C34.4752 67.3892 34.5748 67.5156 34.6468 67.6574C34.7188 67.7992 34.7618 67.9537 34.7733 68.1119C34.7848 68.2701 34.7647 68.4291 34.714 68.5796C34.6634 68.7301 34.5832 68.8694 34.478 68.9893C34.3728 69.1092 34.2448 69.2076 34.1011 69.2786C33.9575 69.3497 33.8011 69.3922 33.6408 69.4035C33.4805 69.4149 33.3196 69.395 33.1671 69.345L33.2025 69.338Z" fill="#161616"/>
</g>
</g>
</svg>

<svg xmlns="http://www.w3.org/2000/svg" width="81" height="79" fill="none">
    <path fill="#161616"
        d="M79.313 38.295h-6.418a32.57 32.57 0 0 0-8.79-15.51L41.359.334a1.262 1.262 0 0 0-1.716 0L22.158 17.588c-.354 0-.708-.052-1.062-.052H1.686a1.223 1.223 0 0 0-.858.349 1.196 1.196 0 0 0-.355.846c.002 3.224.781 6.4 2.272 9.269a20.4 20.4 0 0 0 6.305 7.224C-4.13 77.838 57.465 97.847 72.403 55.648a20.38 20.38 0 0 0 5.98-7.145 20.108 20.108 0 0 0 2.144-9.023 1.191 1.191 0 0 0-.36-.839 1.222 1.222 0 0 0-.854-.346ZM40.498 2.863l21.895 21.613a30.22 30.22 0 0 1 7.989 13.82H59.907a20.83 20.83 0 0 0-10.611 2.91 20.482 20.482 0 0 0-7.584 7.885V37.907a20.238 20.238 0 0 0-4.648-12.877 20.705 20.705 0 0 0-11.84-7.086L40.498 2.863ZM2.951 19.929h18.142a18.375 18.375 0 0 1 10.135 3.065 18.027 18.027 0 0 1 6.69 8.119c-5.045-4.564-16.156-4.107-23.286-3.998-.31.016-.602.15-.816.372a1.19 1.19 0 0 0 0 1.65c.214.222.506.355.816.372h9.696c7.384 0 13.707 3.187 14.779 7.186H21.093A18.344 18.344 0 0 1 8.677 31.84 17.894 17.894 0 0 1 2.95 19.929Zm59.47 47.773c-23.46 22.522-61.152-.786-51.247-31.13a20.716 20.716 0 0 0 9.911 2.517h18.196v32.339a1.185 1.185 0 0 0 .33.89 1.213 1.213 0 0 0 .882.374 1.229 1.229 0 0 0 .881-.375 1.195 1.195 0 0 0 .331-.889V59.849H59.9a20.669 20.669 0 0 0 9.204-2.163 30.171 30.171 0 0 1-6.712 10.016h.029Zm-2.478-10.247H41.889c1.062-3.998 7.395-7.186 14.78-7.186h9.702c.31-.016.603-.15.816-.372a1.19 1.19 0 0 0 0-1.65 1.221 1.221 0 0 0-.816-.372c-7.1-.119-18.304-.556-23.3 3.995a18.024 18.024 0 0 1 6.691-8.12A18.371 18.371 0 0 1 59.9 40.685h18.153a17.897 17.897 0 0 1-5.727 11.913 18.348 18.348 0 0 1-12.418 4.856h.035Zm-26.74 11.883a24.584 24.584 0 0 1-13.097-9.578 24.062 24.062 0 0 1-4.16-15.558c.04-.305.197-.582.438-.776a1.225 1.225 0 0 1 1.667.128c.208.228.32.526.312.833A21.69 21.69 0 0 0 22.12 58.42c2.832 4.12 7 7.165 11.82 8.632a1.228 1.228 0 0 1 .708.605 1.195 1.195 0 0 1-.169 1.332 1.22 1.22 0 0 1-.837.414 1.239 1.239 0 0 1-.474-.058l.035-.007Z" />
</svg>
